X: 1
T:Portland Castle  "CYMRU"
M:C|
L:1/8
Q:80
C:
S:March
K:HP
|: {ag}a|
{AGAG}A{g}c/4e3/4{gcd}c{g}B/4{d}A3/4|
{g}f3/4g/4a3/4f/4{gef}e{g}f/4a3/4|  !
{AGAG}A{g}c/4e3/4{gcd}c{g}B/4{d}A3/4|
{gde}d3/4G/4{g}B/4e3/4{gef}e3/4d/4{g}B/4{d}G3/4| |
{gAGAG}A{g}c/4e3/4{gcd}c{g}B/4{d}A3/4|  !
{g}f3/4g/4a3/4f/4{gef}e{gf}g|
{afg}f3/4e/4{Gdc}d3/4f/4{gef}e{g}d|
{GAG}A2{GAG}A:| |:  !
{gf}g|
{ag}ag/4a3/4{ef}e{g}c/4{d}A3/4|
{g}f/4a3/4{Gdc}d3/4f/4{gef}e{gf}g|  !
{a}f/4a3/4{Gdc}d3/4f/4{gef}e{gde}d3/4c/4|
{gde}d3/4G/4{g}B/4e3/4{gef}e3/4d/4{g}B/4{d}A3/4| |
{ag}ag/4a3/4{ef}e{g}c/4{d}A3/4|  !
{g}f/4a3/4{Gdc}d3/4f/4{gef}e{gf}g|
{afg}f3/4e/4{Gdc}d3/4f/4{gef}e{g}d|
{GAG}A2{GAG}A:| |:  !
{ag}a|
{AGAG}A{g}c/4e3/4{gAGAG}A3/4e/4{g}c/4{d}A3/4|
{g}f/4a3/4{Gdc}d3/4f/4{gef}e3/4d/4{g}c/4e3/4|  !
{gAGAG}A{g}c/4e3/4{gAGAG}A3/4e/4{g}c/4{d}A3/4|
{gde}d3/4G/4{g}B/4e3/4{gef}e3/4d/4{g}B/4{d}G3/4| |
{gAGAG}A{g}c/4e3/4{gAGAG}A3/4e/4{g}c/4{d}A3/4|  !
{g}f/4a3/4{Gdc}d3/4f/4{gef}e{gf}g|
{afg}f3/4e/4{Gdc}d3/4f/4{gef}e{g}d|
{GAG}A2{GAG}A:| |:  !
{gf}g|
a3/4f/4{g}d/4f3/4{gAGAG}A{g}c/4{d}A3/4|
{g}f/4a3/4{Gdc}d3/4f/4{gef}e{gf}g|  !
{a}f/4a3/4{Gdc}d3/4f/4{gef}e3/4A/4{g}c/4{d}A3/4|
{gde}d3/4G/4{g}B/4e3/4{gef}e3/4d/4{g}B/4{d}G3/4|1 |
a3/4f/4{g}d/4f3/4{gAGAG}A{g}c/4{d}A3/4|  !
{g}f/4a3/4{Gdc}d3/4f/4{gef}e{gf}g|
{afg}f3/4e/4{Gdc}d3/4f/4{gef}e{g}d|
{GAG}A2{GAG}A:|2 |:  !
| {gAGAG}A{g}c/4e3/4{gAGAG}A3/4e/4{g}c/4{d}A3/4|
{g}f/4a3/4{Gdc}d3/4f/4{gef}e{gf}g|
{afg}f3/4e/4{Gdc}d3/4f/4{gef}e{g}d|  !
{GAG}A2{GAG}A:|
